img/card_chip.svg

<svg width="24" height="24" viewBox="0 0 24 24" fill="none" xmlns="http://www.w3.org/2000/svg">
<path fill-rule="evenodd" clip-rule="evenodd" d="M12.4565 2H20C21.1046 2 22 2.89543 22 4V4.5H12.4565V2ZM11.4565 2H4C2.89543 2 2 2.89543 2 4V4.5H11.4565V2ZM2 5.5V9.5H6.91089C7.04642 7.79837 7.86857 6.6087 8.84722 5.82267C8.99189 5.70648 9.13994 5.59907 9.28968 5.5H2ZM1 10.5V9.5V4C1 2.34315 2.34315 1 4 1H20C21.6569 1 23 2.34315 23 4V20C23 21.6569 21.6569 23 20 23H12.4565H11.4565H4C2.5135 23 1.27952 21.9189 1.04148 20.5H1V20V19.5V15.5V14.5V10.5ZM2 14.5V10.5H7.3443C8.49122 10.7264 9.23 11.5642 9.41333 12.4175C9.50551 12.8466 9.45621 13.2701 9.26228 13.63C9.07923 13.9697 8.74919 14.2865 8.21242 14.5H2ZM2 15.5V19.5H8.84766C8.46595 19.1607 8.1891 18.7584 7.99662 18.3299C7.57748 17.3968 7.55776 16.3437 7.68823 15.5H2ZM2.06301 20.5C2.28503 21.3626 3.06808 22 4 22H11.4565V20.5H2.06301ZM12.4565 22H20C20.9319 22 21.715 21.3626 21.937 20.5H12.4565V22ZM22 19.5V15.5H16.2248C16.3553 16.3437 16.3356 17.3968 15.9164 18.3299C15.7239 18.7584 15.4471 19.1607 15.0654 19.5H22ZM22 14.5V10.5H15.6087C15.0557 10.5 14.6836 10.6968 14.4439 10.9702C14.196 11.2531 14.0543 11.6597 14.0543 12.125C14.0543 13.0383 14.5998 14.0604 15.7008 14.5H22ZM22 9.5V5.5H11.988C11.3767 5.58039 10.346 5.90152 9.47343 6.60233C8.67636 7.24251 8.0096 8.19793 7.90544 9.60985C9.24125 10.0096 10.1453 11.0637 10.391 12.2075C10.5271 12.8409 10.4623 13.5111 10.1426 14.1044C9.85667 14.635 9.38276 15.0745 8.72917 15.367C8.56663 16.1182 8.54484 17.1099 8.90881 17.9201C9.10551 18.358 9.41429 18.7436 9.88337 19.024C10.3556 19.3062 11.021 19.5 11.9565 19.5C12.8921 19.5 13.5575 19.3062 14.0297 19.024C14.4988 18.7436 14.8075 18.358 15.0042 17.9201C15.3682 17.1098 15.3464 16.1181 15.1838 15.3669C13.7672 14.7325 13.0543 13.368 13.0543 12.125C13.0543 11.4653 13.2551 10.8094 13.6919 10.311C14.1371 9.80321 14.7922 9.5 15.6087 9.5H22Z" fill="url(#paint0_angular_643_776)"/>
<defs>
<radialGradient id="paint0_angular_643_776" cx="0" cy="0" r="1" gradientUnits="userSpaceOnUse" gradientTransform="translate(12.5 12) rotate(-43.3153) scale(24.052 25.1453)">
<stop stop-color="#F8DDB3"/>
<stop offset="1" stop-color="#F8DDB3" stop-opacity="0.29"/>
</radialGradient>
</defs>
</svg>

<svg width="24" height="24" fill="none" xmlns="http://www.w3.org/2000/svg"><path fill-rule="evenodd" clip-rule="evenodd" d="M12.457 2H20a2 2 0 0 1 2 2v.5h-9.543V2Zm-1 0H4a2 2 0 0 0-2 2v.5h9.457V2ZM2 5.5v4h4.91c.136-1.702.959-2.891 1.937-3.677.145-.117.293-.224.443-.323H2Zm-1 5V4a3 3 0 0 1 3-3h16a3 3 0 0 1 3 3v16a3 3 0 0 1-3 3H4a3 3 0 0 1-2.959-2.5H1v-10Zm1 4v-4h5.344c1.147.226 1.886 1.064 2.07 1.918.092.429.042.852-.152 1.212-.183.34-.513.656-1.05.87H2Zm0 1v4h6.848a3.433 3.433 0 0 1-.851-1.17c-.42-.933-.44-1.986-.309-2.83H2Zm.063 5A2 2 0 0 0 4 22h7.457v-1.5H2.063ZM12.456 22H20a2 2 0 0 0 1.937-1.5h-9.48V22ZM22 19.5v-4h-5.775c.13.844.11 1.897-.309 2.83-.192.428-.469.83-.85 1.17H22Zm0-5v-4h-6.391c-.553 0-.925.197-1.165.47-.248.283-.39.69-.39 1.155 0 .913.546 1.935 1.647 2.375H22Zm0-5v-4H11.988c-.611.08-1.642.402-2.515 1.102-.797.64-1.463 1.596-1.568 3.008 1.336.4 2.24 1.454 2.486 2.598a2.754 2.754 0 0 1-.248 1.896c-.286.531-.76.97-1.414 1.263-.162.751-.184 1.743.18 2.553.197.438.505.824.974 1.104.473.282 1.138.476 2.074.476.935 0 1.6-.194 2.073-.476.469-.28.777-.666.974-1.104.364-.81.342-1.802.18-2.553a3.58 3.58 0 0 1-2.13-3.242c0-.66.201-1.316.638-1.814.445-.508 1.1-.811 1.917-.811H22Z" fill="url(#a)"/><defs><radialGradient id="a" cx="0" cy="0" r="1" gradientUnits="userSpaceOnUse" gradientTransform="matrix(17.49998 -16.49998 17.25 18.29546 12.5 12)"><stop stop-color="#F8DDB3"/><stop offset="1" stop-color="#F8DDB3" stop-opacity=".29"/></radialGradient></defs></svg>
